img/activities/08.svg

<svg width="48" height="64" viewBox="0 0 48 64" fill="none" xmlns="http://www.w3.org/2000/svg">
<g clip-path="url(#clip0_14_4301)">
<path d="M24 6C24 4.4087 24.6322 2.88258 25.7574 1.75736C26.8826 0.632141 28.4087 0 30 0C31.5913 0 33.1174 0.632141 34.2427 1.75736C35.3679 2.88258 36 4.4087 36 6C36 7.5913 35.3679 9.11742 34.2427 10.2426C33.1174 11.3679 31.5913 12 30 12C28.4087 12 26.8826 11.3679 25.7574 10.2426C24.6322 9.11742 24 7.5913 24 6ZM30.4125 28.8375L28.025 38.375L34.2375 44.5875C35.3625 45.7125 36 47.2375 36 48.825V60C36 62.2125 34.2125 64 32 64C29.7875 64 28 62.2125 28 60V49.6625L18.7625 40.425C16.7875 38.45 15.9875 35.6 16.65 32.8875L19.2 22.3875C20.2375 18.125 24.5375 15.525 28.7875 16.5875C31.1625 17.1875 33.2375 18.6375 34.5875 20.675L38.1375 26H42V23C42 21.3375 43.3375 20 45 20C46.6625 20 48 21.3375 48 23V29.975C48 29.9875 48 30 48 30V30.025V61C48 62.6625 46.6625 64 45 64C43.3375 64 42 62.6625 42 61V34H37.075C35.075 34 33.2 33 32.0875 31.325L30.425 28.825L30.4125 28.8375ZM10.1375 58.9875L14.6625 41.75C15.0375 42.275 15.4625 42.775 15.925 43.2375L21.1625 48.475L17.8625 61.0125C17.3 63.15 15.1125 64.425 12.975 63.8625C10.8375 63.3 9.56251 61.1125 10.125 58.975L10.1375 58.9875ZM17.075 15.7375L12.675 33.3125C12.3 34.825 10.8125 35.8 9.27501 35.55L3.28751 34.55C1.53751 34.2625 0.425012 32.5125 0.887512 30.8L3.98751 19.375C5.17501 15.025 9.12501 12 13.6375 12H14.1625C16.1125 12 17.55 13.8375 17.075 15.725V15.7375Z" fill="#D8AE5E"/>
</g>
<defs>
<clipPath id="clip0_14_4301">
<rect width="48" height="64" fill="white"/>
</clipPath>
</defs>
</svg>

<svg xmlns="http://www.w3.org/2000/svg" width="48" height="64" fill="none"><g clip-path="url(#a)"><path fill="#D8AE5E" d="M24 6a6 6 0 1 1 12 0 6 6 0 0 1-12 0Zm6.4 22.8L28 38.4l6.2 6.2a6 6 0 0 1 1.8 4.2V60a4 4 0 1 1-8 0V49.7l-9.2-9.3a8 8 0 0 1-2.2-7.5l2.6-10.5c1-4.3 5.3-6.9 9.6-5.8 2.4.6 4.4 2 5.8 4L38 26H42v-3a3 3 0 1 1 6 0v38a3 3 0 1 1-6 0V34h-5a6 6 0 0 1-5-2.7l-1.6-2.5ZM10.1 59l4.6-17.3c.3.6.8 1 1.2 1.5l5.3 5.3L17.9 61a4 4 0 1 1-7.8-2Zm7-43.3-4.4 17.6a3 3 0 0 1-3.4 2.3l-6-1a3 3 0 0 1-2.4-3.8l3-11.4a10 10 0 0 1 9.7-7.4h.6a3 3 0 0 1 2.9 3.7Z"/></g><defs><clipPath id="a"><path fill="#fff" d="M0 0h48v64H0z"/></clipPath></defs></svg>
